icons/desktop/16/svg/edit-active-16.svg

<svg width="16" height="16" viewBox="0 0 16 16" fill="none" xmlns="http://www.w3.org/2000/svg">
<path fill-rule="evenodd" clip-rule="evenodd" d="M10.1182 1.47032C11.1448 0.751642 12.5524 0.864536 13.4541 1.76622L14.2354 2.54649C15.1971 3.50824 15.2609 5.04598 14.376 6.08263C13.0436 7.64342 11.5357 9.27063 9.83203 10.9137C8.76217 11.9449 7.70485 12.8983 6.67285 13.777L5.65039 14.6305C5.35147 14.8755 4.98332 15.0015 4.60742 15.0016H1.75C1.33594 15.0016 1.00025 14.6656 1 14.2516V11.3941C1 11.018 1.12588 10.6493 1.37109 10.3502C2.4762 8.99846 3.71148 7.59552 5.08691 6.16954C6.73068 4.46613 8.35673 2.95634 9.91797 1.62462L10.1182 1.47032ZM8.79688 4.63048C7.93081 5.43487 7.05154 6.29393 6.16699 7.21056C4.82089 8.60611 3.61186 9.97856 2.53125 11.3004C2.51246 11.3233 2.5 11.3543 2.5 11.3941V13.5016H4.60742C4.64691 13.5015 4.67642 13.4889 4.69922 13.4703L4.7002 13.4693C6.02202 12.3878 7.39461 11.1795 8.79004 9.83458C9.70687 8.95039 10.5646 8.06952 11.3691 7.20274L8.79688 4.63048ZM12.3936 2.82677C11.9833 2.41653 11.331 2.39018 10.8916 2.76524C10.5666 3.04248 10.2385 3.32749 9.9082 3.62071L12.3789 6.09142C12.672 5.76111 12.958 5.43393 13.2354 5.10899C13.6104 4.66964 13.585 4.01728 13.1748 3.60704L12.3936 2.82677Z" fill="black"/>
</svg>

<!-- This Source Code Form is subject to the terms of the Mozilla Public
   - License, v. 2.0. If a copy of the MPL was not distributed with this
   - file, You can obtain one at http://mozilla.org/MPL/2.0/. -->
<svg xmlns="http://www.w3.org/2000/svg" width="16" height="16" fill="context-fill" fill-opacity="context-fill-opacity" viewBox="0 0 16 16">
    <path fill-rule="evenodd" d="M10.118 1.47a2.605 2.605 0 0 1 3.336.296l.781.78c.962.962 1.026 2.5.141 3.537a68.5 68.5 0 0 1-7.703 7.694l-1.023.854a1.64 1.64 0 0 1-1.043.37H1.75a.75.75 0 0 1-.75-.75v-2.857c0-.376.126-.745.371-1.044a68 68 0 0 1 8.547-8.725zM8.797 4.63A67 67 0 0 0 2.53 11.3a.14.14 0 0 0-.031.094v2.108h2.107a.14.14 0 0 0 .092-.032H4.7a66.506 66.506 0 0 0 6.669-6.267zm3.597-1.803a1.106 1.106 0 0 0-1.502-.062q-.488.415-.984.856l2.47 2.47q.441-.495.857-.982c.375-.44.35-1.092-.06-1.502z" clip-rule="evenodd" />
</svg>
